X: 78
T:Ard an Bhothair
T:Hill on The Road, The
T:High Part of the Road, The
R:jig
C:Sean Ryan
N:Posted to the woodenflute mailing list October 2002
D:Himself playing on Come West Along the Road ( Video )
Z:pat higgins,hn-jig-190
M:6/8
K:G
B3 cBc|ded cAG|F3 DFD| DFF FGA|
B3 cBc|d3 (4dBcd|fed cAF|AGF G2A:||
g3 def|gfg bag|f3 (4defg|afd cAF|
g3 d2e|g2a bag|fed cAF|1> AGF GBd:|2 DEF G3:||
